projects/flag-game/flags/Armenia.svg

<svg viewBox="0 0 1000 500" xmlns="http://www.w3.org/2000/svg"><path d="m0 0h1000v500h-1000z" fill="#d90012"/><g fill-rule="evenodd"><path d="m0 166.667969h1000v166.664062h-1000zm0 0" fill="#0033a0"/><path d="m0 333.332031h1000v166.667969h-1000zm0 0" fill="#f2a800"/></g></svg>

<?xml version="1.0" encoding="UTF-8"?>
<svg xmlns="http://www.w3.org/2000/svg" xmlns:xlink="http://www.w3.org/1999/xlink" viewBox="0 0 1000 500" version="1.1">
<g id="surface119">
<rect x="0" y="0" width="1000" height="500" style="fill:rgb(85.096741%,0%,7.058716%);fill-opacity:1;stroke:none;"/>
<path style=" stroke:none;fill-rule:evenodd;fill:rgb(0%,19.999695%,62.744141%);fill-opacity:1;" d="M 0 166.667969 L 1000 166.667969 L 1000 333.332031 L 0 333.332031 Z M 0 166.667969 "/>
<path style=" stroke:none;fill-rule:evenodd;fill:rgb(94.900513%,65.881348%,0%);fill-opacity:1;" d="M 0 333.332031 L 1000 333.332031 L 1000 500 L 0 500 Z M 0 333.332031 "/>
</g>
</svg>
